X:1

T:Robin Spraggon’s Auld Grey Mare

L:1/8

M:6/8

S:Bruce & Stokoe – Northumbrian Minstrelsy

Z:AK/Fiddler’s Companion

K:C

C|CCc B2A|(G2F) E2G|F2E D2C|(c3 c2)C|C2c B2A|

G2F E2G|F2E D2C|(c3 c2)||G|c2d e2f|(dB)c A2G|

c2B A2G|G3 GGG|g2e (cd)e|f2d B2B|c2E D2B|(c3 c2)||

                       

ROBIN TO THE GREENWOOD GONE. English. Harmonia Mundi 907101, The King's Noyse - "The King's Delight: 17c Ballads for Voice and Violin Band" (1992).

                       


ROBIN’S BODHRAN. American, Jig. E Minor. Standard tuning. AABB. Composed by Peterborough, New Hampshire, composer, accordion and piano player Bob McQuillen in honor of Boys of the Lough original member Robin Morton. A bodhran is a type of shallow, open-backed Irish drum, usually struck with an implement called a tipper.  Songer (Portland Collection), 1997; pg. 168. Old New England 101, Bob McQuillen & Old New England - “Old New England” (1996). Marimac 9012, The Fish Family Dance Band - “Fluke Hits” (1987).

           

ROBIN’S JIG. Canadian, Jig. D Major. Standard tuning. AABB. Composed by Sarnia, southwestern Ontario, fiddler John(ny) Durocher (1934-1989), named for his daughter Robin. Durocher was a self-made man, according to Ron Ritchie (Fiddler Magazine, Summer 2005), born the youngest of sixteen children. He quit school in his young teens to help make family ends meet and was a factory worker for most of his life.  He found a broken fiddle in the trash one day, asked the owner for permission to retrieve it, and with some repair work had his first instrument. A few lessons from a local teacher (which served to teach him how to read and write music), were all the formal music education John received. He was a prolific composer of fiddle tunes, however, and named them for sports and current events, family and friends and topics of his day. Durocher’s music was picked up by radio fiddler Don Messer, who included many of his tunes in his broadcasts and printed collections, and Durocher became quite influential in the Ontario scene for his compositions. Fiddler Magazine, vol. 12, No. 2, Summer 2005; pg. 27.

             

ROBIN’S NEST, THE. Irish, Jig. Composed by the late County Tipperary fiddler Seán Ryan. Ryan (The Hidden Ireland), 13.

 

ROBIN'S REEL. Old‑Time. Caney Mountain CLP 228, Lonnie Robertson ‑ "Fiddle Favorites" (1971‑72).

                       

ROBINSON COUNTY. AKA – “Robertson.” Old‑Time, Breakdown. USA, central Arkansas. D Major. Standard tuning. AABB. There are genealogical and historical references to Robinson Counties having once existed in various southern states, although when Bob Palasek traced them he found that the name Robinson had been mistakenly substituted for the correct name of Robertson or Robeson (there is, for example a Robeson County in North Carolina). There is a story circulating (albeit without verification) that the name of the tune derives from an early 20th century scheme for five western counties to secede from the state of Virginia and to call themselves Robinson County. One of those involved in the plot was said to have written this tune. A close variant is  “New Five Cents [1].” See also related tune “Ruffled Drawers.” Uncle Dave Macon used the low part of the tune for his song “Country Ham.” The tune was recorded in 1931 by Iiton Birkhead and Albert Ward in 1931. Birkhead was born in Arkansas in 1865 and Ward in 1874, and it appears that Birkhead was the principal fiddler on the recording; they played the second strain an octave apart. Ted Sharp, Hinman & Sharp’s version (called “Hell Among the Yearlings”), also recorded in the 1930’s, differs slightly. Sources for notated versions: Ted Sharp [Phillips]; Iiton O. Birkhead & Albert E. Ward (Arkansas) [Beisswenger & McCann]. Beisswenger & McCann (Ozark Fiddle Music), 2008; pg. 172. Phillips (Traditional American Fiddle Tunes), vol. 1, 1994; pg. 200. County 531, Ted Sharp ‑ "Old Time String Band Classics" (1975). County CD-3507, Iiton O. Birkhead & Albert Ward – “Echoes of the Ozarks, vol. 2” (1995. Various artists). Heritage 060, Major Contay & the Canebreak Rattlers ‑ "Music of the Ozarks" (Brandywine 1984). Marimac 9017, Vesta Johnson (Mo.) ‑ "Down Home Rag." Yodel‑ay‑hee Records #108327, Critton Hollow Stringband ‑ "Poor Boy" (1979).

See also listing at:

Jane Keefer’s Folk Music Index: An Index to Recorded Sources 

